X: 12
T: Banu Choshech
C: Sara Levi-Tenai, Emanuel Amiran
Z: Gideon Klionsky
M: 2/4
L: 1/8
%R: fcfc
Q: 1/8=72
K:Dm
%
"Dm" D>C DF | "Am" EF "Dm" D2 | "Dm" D>C DF | "Am" EF "Dm" D2 |
"Gm" G>F G>F | "Dm" DF "Gm" G2| "Gm" G>F G>F | "Dm" DF "Gm" G2 |
"Dm" (A/G/)F FD | D "Am"C "Dm"D2 | "Dm"(A/G/)F- FA | "C" G F/E/ "Dm"D2 |
"Dm" (A/G/)F FD | D "Am"C "Dm"D2 | "Dm"(A/G/)F- FA | "Gm" G "A7"F/E/ "Dm"D2 |]
W:.בָּאנוּ חֹשֶךְ לְגָרֵשׁ
W:.בְּיָדֵינוּ אוֹר וָאֵשׁ
W:,כָּל אֶחָד הוּא אוֹר קָטָן
W:.וְכֻלָּנוּ - אוֹר אֵיתָן
W:
W:!סוּרָה חֹשֶךְ! הָלְאָה שְׁחוֹר (x2)
W:!סוּרָה מִפְּנֵי הָאוֹר
W:
W:,צִיל-צִיל-צִיל בַּפַּעֲמוֹנִים
W:.מִי אֲנַחְנוּ? סְבִיבוֹנִים
W:,לָנוּ רֶגֶל רַק אַחַת
W:.אִם נִפֹּל – גַּם לֹא נִפְחַד
W:...סוּרָה
W:
W:אָנוּ שׁוֹבָבִים גְּדוֹלִים
W:- עַלִּיזִים וְהוֹלְלִים
W:אַךְ נֵדַע יָפֶה מְאוֹד
W:לְסַפֵּר, לָשִׁיר, לִרְקֹד.
W:...סוּרָה
W:
W:
W:Banu choshech l’garesh
W:B’yadeinu or va’eish
W:Kol echad hu or katan
W:V’chulanu or eitan
W:
W:(x2) Sura Choshech! Hal’a Shchor!
W:Sura, mip’nei ha’or!
W:
W:Tzil-tzil-tzil bapa'amonim
W:Mi anachnu? S'vivonim
W:Lanu regel rak achat,
W:Im nipol - gam lo nifchad.
W:Sura...
W:
W:Anu shovavim g'dolim
W:Alizim v'hol'lim -
W:Ach neda yafeh m'od
W:L'saper, lashir, lirkod.
W:Sura...

